assets /tkxel's branding Lut/tkxel branding Lut 2 (50%) (1).cube
TITLE "17x17x17 Adobe/IRIDAS cube 3D LUT exported with GrossGrade v0.2.2 (beta) 64 bit"
DOMAIN_MIN 0 0 0
DOMAIN_MAX 1 1 1
LUT_3D_SIZE 5
0.000000000 0.000000000 0.000000000
0.246393263 0.003351250 0.003154000
0.417501003 0.006703001 0.007097000
0.503958225 0.010251000 0.011040001
0.577440023 0.014194000 0.014983000
0.029768500 0.167622760 0.004534000
0.232226998 0.212047249 0.020108750
0.436739504 0.198264003 0.021685751
0.565896749 0.173012763 0.023262750
0.648330748 0.166791499 0.026417501
0.164797008 0.377988011 0.020503001
0.329072475 0.416721284 0.031543251
0.533680439 0.455936015 0.043260500
0.684544981 0.453861505 0.046177499
0.764191985 0.419021517 0.046888500
0.326497763 0.583580792 0.117477760
0.439561754 0.607612014 0.078115009
0.606368244 0.643321276 0.073713504
0.759436965 0.666632295 0.063666753
0.861087739 0.674035013 0.071691751
0.468428999 0.736000001 0.263520002
0.549668252 0.750636041 0.256821245
0.681722522 0.779765964 0.257191002
0.798148513 0.805632710 0.292341262
0.897158027 0.822622001 0.337931991
0.009463000 0.002366000 0.181087017
0.224174500 0.003154000 0.157648996
0.439329773 0.006309000 0.137642995
0.542519271 0.009660000 0.126976252
0.619257510 0.013406000 0.136609256
0.001577000 0.149889499 0.123212010
0.172964245 0.235277757 0.222680509
0.454394013 0.253358752 0.204861999
0.616375506 0.257187247 0.191027492
0.704451561 0.239434749 0.165100008
0.041817758 0.388098001 0.228402019
0.276443243 0.441243768 0.265710503
0.514892280 0.483266026 0.257045001
0.680641711 0.466145039 0.238339767
0.779545307 0.442725241 0.216151506
0.285787761 0.606397033 0.310743004
0.405636013 0.630449712 0.321542263
0.584113717 0.664875209 0.304581761
0.748884022 0.689277768 0.301922500
0.860049546 0.689945817 0.280703515
0.452952504 0.751154244 0.388805509
0.539433241 0.767014742 0.388037264
0.674677730 0.794687212 0.388281226
0.791337252 0.817093968 0.402767271
0.892893016 0.832653284 0.428967506
0.003943000 0.009462502 0.350145996
0.207414761 0.004337001 0.358614773
0.458876491 0.005914501 0.355242014
0.585214257 0.007886000 0.348904550
0.662240505 0.014983000 0.351543516
0.004731000 0.234995499 0.405086994
0.180021018 0.265077978 0.432674050
0.468457013 0.284382254 0.436860025
0.643203735 0.289820760 0.428606778
0.740761697 0.279688776 0.417267025
0.003154000 0.277009487 0.269849539
0.043628998 0.395418227 0.388976753
0.445982516 0.518524528 0.500307024
0.686574280 0.529601216 0.494044751
0.807810068 0.523145020 0.472185999
0.009068500 0.464814007 0.326839745
0.203128740 0.561647773 0.411593020
0.547834516 0.683168292 0.530828238
0.733849525 0.721558511 0.540869474
0.854137540 0.709062219 0.514878750
0.338036478 0.722836494 0.487204492
0.467688233 0.760534286 0.523460746
0.661934018 0.814884067 0.570459008
0.781309009 0.835115790 0.573540270
0.883311510 0.849537492 0.585734010
0.005520000 0.085595757 0.489572763
0.211621746 0.074112505 0.519564271
0.476412773 0.056298506 0.531609535
0.622073531 0.020897511 0.527285278
0.705388963 0.047722507 0.529482782
0.006900000 0.275234014 0.556395233
0.189131528 0.302197248 0.588990033
0.488792241 0.315648764 0.609572291
0.664700508 0.317415029 0.601502299
0.765508235 0.309288234 0.597365975
0.006506000 0.416185021 0.553660750
0.075955257 0.465360284 0.600447237
0.498702288 0.543764472 0.652585804
0.692824483 0.556751251 0.659937263
0.816128969 0.549788475 0.652340531
0.004731000 0.385340512 0.391677737
0.027994750 0.466332495 0.467575014
0.364572287 0.654468775 0.627926528
0.678113520 0.752524972 0.710676312
0.852616787 0.747343302 0.691947758
0.005520000 0.518242240 0.400963247
0.049461748 0.596578002 0.463141739
0.452045977 0.734470487 0.588539004
0.752532244 0.838087261 0.697990775
0.874904752 0.862861514 0.724317014
0.007097000 0.181566000 0.599578023
0.222589999 0.175810501 0.634093225
0.496520519 0.177267998 0.656941473
0.659495771 0.173309997 0.663035512
0.744962990 0.157458007 0.659817994
0.007886000 0.319880486 0.653600037
0.224429011 0.345561236 0.691533029
0.513586819 0.363140255 0.712386727
0.687820554 0.362061977 0.716706514
0.785601497 0.353399009 0.713413000
0.007886000 0.488749504 0.693972468
0.214817494 0.527065516 0.729769468
0.546797037 0.571498036 0.763531566
0.718164563 0.577848732 0.766406000
0.826238990 0.575162530 0.764451027
0.007886000 0.563423991 0.662315488
0.052688748 0.599601030 0.690878510
0.487313509 0.704758227 0.767051995
0.744729042 0.755390286 0.797596216
0.852028966 0.760587752 0.797813237
0.011040000 0.502442002 0.513813972
0.031937499 0.541044474 0.547472537
0.181984544 0.691141486 0.671059012
0.669924974 0.832135499 0.785157025
0.864212990 0.874032021 0.818372011
