assets /tkxel's branding Lut/tkxel branding Lut 2 (50%) (1).cube
TITLE "17x17x17 Adobe/IRIDAS cube 3D LUT exported with GrossGrade v0.2.2 (beta) 64 bit"
DOMAIN_MIN 0 0 0
DOMAIN_MAX 1 1 1
LUT_3D_SIZE 17
0.000000000 0.000000000 0.000000000
0.040058315 0.003893687 0.003844438
0.109607376 0.008575500 0.003943000
0.181032702 0.008821936 0.003154000
0.246393263 0.003351250 0.003154000
0.300739676 0.003943000 0.004484750
0.353281379 0.005224125 0.005520000
0.388883382 0.005963813 0.006309000
0.417501003 0.006703001 0.007097000
0.442415625 0.007442188 0.007886000
0.465626627 0.008674000 0.008969875
0.485397518 0.009463000 0.010251000
0.503958225 0.010251000 0.011040001
0.522064447 0.011040001 0.011976752
0.540231884 0.011927502 0.012715627
0.558736444 0.012666316 0.014194000
0.577440023 0.014194000 0.014983000
0.011631813 0.023755999 0.004632438
0.024938313 0.019270439 0.004681750
0.057404689 0.018531688 0.005470688
0.111017205 0.020848311 0.005470687
0.173195317 0.021045437 0.003943000
0.237052247 0.017989250 0.004484750
0.290491819 0.014194123 0.004731000
0.342044473 0.012419876 0.005520001
0.387981832 0.012469126 0.006703001
0.420769244 0.012567750 0.007442188
0.450143397 0.013307437 0.008674000
0.478961945 0.014095437 0.009463000
0.503681481 0.014144750 0.010448250
0.525196671 0.014933688 0.011187940
0.543700099 0.015672438 0.012617000
0.562599778 0.016461438 0.013406000
0.581403613 0.017250374 0.014194000
0.012617000 0.071552873 0.006309000
0.033957750 0.069892317 0.006309000
0.077830873 0.076275133 0.010053875
0.123663947 0.072681561 0.010053874
0.179275125 0.070697129 0.007885875
0.239505872 0.066671751 0.008476876
0.294412524 0.063084751 0.008575500
0.341523230 0.053324312 0.008575500
0.389642507 0.041772373 0.008575500
0.427442312 0.034795940 0.009364375
0.457502127 0.030754626 0.010152500
0.485408127 0.029423501 0.010941375
0.512117147 0.028388627 0.011730375
0.535735846 0.030705191 0.012518502
0.556649446 0.032824628 0.014095500
0.575184703 0.033662066 0.014884375
0.594622612 0.036669128 0.015672499
0.016116377 0.118542820 0.004730999
0.047602504 0.123649821 0.007047749
0.095851503 0.133398756 0.009512251
0.150353387 0.145394385 0.013898313
0.207946002 0.147240251 0.014490064
0.266544998 0.142243832 0.014687315
0.320016861 0.135040641 0.014687315
0.364452899 0.127302945 0.014687315
0.410916746 0.119220205 0.015475314
0.453205198 0.111715958 0.015475314
0.484360874 0.105663329 0.016116377
0.510610461 0.100793079 0.016264314
0.535859108 0.095313519 0.017053125
0.560371339 0.093068331 0.017841315
0.580536008 0.091633141 0.018630315
0.599929333 0.094474524 0.019467629
0.619318545 0.100069076 0.020996125
0.029768500 0.167622760 0.004534000
0.066133186 0.176257193 0.007590188
0.116655007 0.186844766 0.011533125
0.169036388 0.198266506 0.016215000
0.232226998 0.212047249 0.020108750
0.293301105 0.217858493 0.020897500
0.350564033 0.215839624 0.021685751
0.394282520 0.206325620 0.021685751
0.436739504 0.198264003 0.021685751
0.480644017 0.188753694 0.021685751
0.513776779 0.182239622 0.022277500
0.540540457 0.176910132 0.022474751
0.565896749 0.173012763 0.023262750
0.590125203 0.169546008 0.024051750
0.611560583 0.167594001 0.024839751
0.631155729 0.167059809 0.025628751
0.648330748 0.166791499 0.026417501
0.056689814 0.219323128 0.006850750
0.093219623 0.226291507 0.009955437
0.140293434 0.237644121 0.013849124
0.191444635 0.248914942 0.018383751
0.251267612 0.264068127 0.023262750
0.314760804 0.275621682 0.026318876
0.373720527 0.284511328 0.027846875
0.421593428 0.281528324 0.027896186
0.465661258 0.273872435 0.027896186
0.509656131 0.267022371 0.027896186
0.544254124 0.257305741 0.028437939
0.571307480 0.248809680 0.028684188
0.594438553 0.242128059 0.028684188
0.618261218 0.237621188 0.029473187
0.641252458 0.234940991 0.030261187
0.661582649 0.234050319 0.031050190
0.679458976 0.233686566 0.031838875
0.093647882 0.270151645 0.010744127
0.124275066 0.274902016 0.013060876
0.168873638 0.284853250 0.016954500
0.216916338 0.297760397 0.020848189
0.272800654 0.312062532 0.025530126
0.337432563 0.327066541 0.030211940
0.394899875 0.337849021 0.032036126
0.444372147 0.344053090 0.033317626
0.490511000 0.343521267 0.034105629
0.535655558 0.339342505 0.034105629
0.573559880 0.331290632 0.034105629
0.602224469 0.321317643 0.034105629
0.624085128 0.311632514 0.034105629
0.646574080 0.303492516 0.034894630
0.669238150 0.298164904 0.035190128
0.689007819 0.295305461 0.036027815
0.707693875 0.293523133 0.036767125
0.129406705 0.323450536 0.015081065
0.156505898 0.328666538 0.016165564
0.197814450 0.337804139 0.020059314
0.245215833 0.349696964 0.023953063
0.300317228 0.362631321 0.028438002
0.358641326 0.377205551 0.033416189
0.414834321 0.387855977 0.036373064
0.463848889 0.394866675 0.037506811
0.510884523 0.401547790 0.039477814
0.559467137 0.403884917 0.040212192
0.600761771 0.400798202 0.040309317
0.632085979 0.393095076 0.040309317
0.655377626 0.383877963 0.040309317
0.677081048 0.375028938 0.040309317
0.698633194 0.366657645 0.041084379
0.718749881 0.360318929 0.041084379
0.735454023 0.354391545 0.041850127
0.164797008 0.377988011 0.020503001
0.188695580 0.382204831 0.019270688
0.231121883 0.392229021 0.023164377
0.275362641 0.402816236 0.027058065
0.329072475 0.416721284 0.031543251
0.383266062 0.429920137 0.035781190
0.437264889 0.441062152 0.040692501
0.485471368 0.448803335 0.042176813
0.533680439 0.455936015 0.043260500
0.580657363 0.463005185 0.045414623
0.624612987 0.465785027 0.046177499
0.659790397 0.462530643 0.046177499
0.684544981 0.453861505 0.046177499
0.706240714 0.445563257 0.046177499
0.728212714 0.436135769 0.046177499
0.747386575 0.426963955 0.046177499
0.764191985 0.419021517 0.046888500
0.205651253 0.433283925 0.028635126
0.225828812 0.436240911 0.024297688
0.266014367 0.445073873 0.026269563
0.307566375 0.454287469 0.030162813
0.358563244 0.467706442 0.034056500
0.406888068 0.477979809 0.038492378
0.457572877 0.490521431 0.042559378
0.505159378 0.498860627 0.046177939
0.551705778 0.505123436 0.047505375
0.601042390 0.513698399 0.048895560
0.644510150 0.520023942 0.050891750
0.681246102 0.523130834 0.052179873
0.709809661 0.521092534 0.052261751
0.732853770 0.514179885 0.052261751
0.755595326 0.505748332 0.052261751
0.776608407 0.497312695 0.052261751
0.792956769 0.487783045 0.052261751
0.245251745 0.485409498 0.045920499
0.263244689 0.488421947 0.032479249
0.302538872 0.497338593 0.034007501
0.343080699 0.506267250 0.036520813
0.387175739 0.516705513 0.039325748
0.431377530 0.526885331 0.041321941
0.478000164 0.537425280 0.044735003
0.523529768 0.546587050 0.048939191
0.571914911 0.555267096 0.052179500
0.619817317 0.562802017 0.052876938
0.662496388 0.568334997 0.054132126
0.698980570 0.572494686 0.055998500
0.728335381 0.574648738 0.057282377
0.754108906 0.573157966 0.057282377
0.778956771 0.569639862 0.057282377
0.801261604 0.562917709 0.057510752
0.819408834 0.554778755 0.057897624
0.286019057 0.538128674 0.078210875
0.301193386 0.540225983 0.060074251
0.338390887 0.548250020 0.057439499
0.374786258 0.556820035 0.054316811
0.413744569 0.565437794 0.050675627
0.457075804 0.575942218 0.045637686
0.499237090 0.585023880 0.047279440
0.543491185 0.594116271 0.050675627
0.589196980 0.603588045 0.054881874
0.638510525 0.610574484 0.057584688
0.679759920 0.616210878 0.058620188
0.716490448 0.620261431 0.059225127
0.744947374 0.623375833 0.061566688
0.771623075 0.625562966 0.062587939
0.797705829 0.625826418 0.062587939
0.822191536 0.622630835 0.062766373
0.841647804 0.616543889 0.062766373
0.326497763 0.583580792 0.117477760
0.337941080 0.583801270 0.089661390
0.371062398 0.591345727 0.085794762
0.402883619 0.598945498 0.082605883
0.439561754 0.607612014 0.078115009
0.478063554 0.615563273 0.073388144
0.517645776 0.624766231 0.073897883
0.559691548 0.634183943 0.073658258
0.606368244 0.643321276 0.073713504
0.654298246 0.654331923 0.074289694
0.695123374 0.660294294 0.069601253
0.731069267 0.665012360 0.065014251
0.759436965 0.666632295 0.063666753
0.785984695 0.670928597 0.065433383
0.812572896 0.673779905 0.068979755
0.838768780 0.674541235 0.068947375
0.861087739 0.674035013 0.071691751
0.361406475 0.625589311 0.160512224
0.370546401 0.623366416 0.132424787
0.400011331 0.629536986 0.130213901
0.428700894 0.635824502 0.128542110
0.462437153 0.643601537 0.125498667
0.497109085 0.651347280 0.121261597
0.534327030 0.660047829 0.116651781
0.577272415 0.669243097 0.109494403
0.623000920 0.680029333 0.100891083
0.669111371 0.690585136 0.092249781
0.709209800 0.698930442 0.082813717
0.743089318 0.703112721 0.073976167
0.771830678 0.706448913 0.075966477
0.797421217 0.708772421 0.078274921
0.824007511 0.712605715 0.090320170
0.850687265 0.716107488 0.104331359
0.873884380 0.718042493 0.104449794
0.399066806 0.666810691 0.202166155
0.404968441 0.663171470 0.170237720
0.432228625 0.668409944 0.169254929
0.456987649 0.673887491 0.167518303
0.487572402 0.680664539 0.165664673
0.520681739 0.686772823 0.161960810
0.558132172 0.695357203 0.156779170
0.599674642 0.704835653 0.150111303
0.642674744 0.714549124 0.142749429
0.682712793 0.722713888 0.137221485
0.721783876 0.731076121 0.134518564
0.753854275 0.735891640 0.131973490
0.780863225 0.738566160 0.130839929
0.807242513 0.742278695 0.130362675
0.834733844 0.744891167 0.129807428
0.860925913 0.748293877 0.136734992
0.883421600 0.752056777 0.148478150
0.433190078 0.702978492 0.233056352
0.438534915 0.700781643 0.206811905
0.462128758 0.705790102 0.207109854
0.487557769 0.710239530 0.206258908
0.514716744 0.716301322 0.205820218
0.546625793 0.722955525 0.204152107
0.583570838 0.730659246 0.200901911
0.623793483 0.739277720 0.198151216
0.661186635 0.746894240 0.193449929
0.698316276 0.754286587 0.190569729
0.734170794 0.762730598 0.188035801
0.762446702 0.767397821 0.186178729
0.790642738 0.770542741 0.181470603
0.818589926 0.774106503 0.175050348
0.846293688 0.777421534 0.170533478
0.871312380 0.780850828 0.166364342
0.893147588 0.783226430 0.171682209
0.468428999 0.736000001 0.263520002
0.480003238 0.737378776 0.256229997
0.500887573 0.740907609 0.256396502
0.522482574 0.745202363 0.256062925
0.549668252 0.750636041 0.256821245
0.580840468 0.758159876 0.256368756
0.614548266 0.765291214 0.256802887
0.648057938 0.772511363 0.256821990
0.681722522 0.779765964 0.257191002
0.715742648 0.787642956 0.260603130
0.743979752 0.793192208 0.265428007
0.770682752 0.799123883 0.277939230
0.798148513 0.805632710 0.292341262
0.826966524 0.810041010 0.291974753
0.853888035 0.813587368 0.292165488
0.875983238 0.817169785 0.302119106
0.897158027 0.822622001 0.337931991
0.006899875 0.001527750 0.014440876
0.030113313 0.003893687 0.011631813
0.094600253 0.008476876 0.011631813
0.168375462 0.008033749 0.010103187
0.239283681 0.003943000 0.009315126
0.295554578 0.003943000 0.010152437
0.349447429 0.004731000 0.010941437
0.388163686 0.005520001 0.011730375
0.418136209 0.006309000 0.012518438
0.444595635 0.007442188 0.013307437
0.468588740 0.008674000 0.014095437
0.489819378 0.009463000 0.014884437
0.509423912 0.010251000 0.015672438
0.527742565 0.011040000 0.016461438
0.547367990 0.011829000 0.016609317
0.565711498 0.012666316 0.017299687
0.584412217 0.014194000 0.018087750
0.010201749 0.018482437 0.013159563
0.020946937 0.019960875 0.014638000
0.058189623 0.019270437 0.013159562
0.111495942 0.024593376 0.013947561
0.173392698 0.026811562 0.012370562
0.239161313 0.025825813 0.011631813
0.294290155 0.023312125 0.011681125
0.346752465 0.020305999 0.012173626
0.394420296 0.016954686 0.012518438
0.430978745 0.016264312 0.013307437
0.460602134 0.016313562 0.014095437
0.489468843 0.016116312 0.014933688
0.515818357 0.016362874 0.015721751
0.538061619 0.018087815 0.016658628
0.557871878 0.020355191 0.017299687
0.576429069 0.021833628 0.018087750
0.582208991 0.014194000 0.015721750
0.011089313 0.065157503 0.015475376
0.033169687 0.067144066 0.020010125
0.075534686 0.072587624 0.020010125
0.123523638 0.070257746 0.018580938
0.179822519 0.072561875 0.016362874
0.244432017 0.073765941 0.015475376
0.299605906 0.073575310 0.015524624
0.350355268 0.069405623 0.015573937
0.401915908 0.063795559 0.016264312
0.441084683 0.057237625 0.016362812
0.472766548 0.053428940 0.017053187
0.500467956 0.049305003 0.017151812
0.527620316 0.047649689 0.017939875
0.550866008 0.048342373 0.018728813
0.571078598 0.048623566 0.019467626
0.590374827 0.051716316 0.020256562
0.597414076 0.032627564 0.017201062
0.012617065 0.118651390 0.020010062
0.043043941 0.123059697 0.022326751
0.091490194 0.132028252 0.020897623
0.148015454 0.140825212 0.022573251
0.203152075 0.139912024 0.021685814
0.263226867 0.137719154 0.020848313
0.318260193 0.135257825 0.020848313
0.366999298 0.132661700 0.020996189
0.416202247 0.129646704 0.021685753
0.460652679 0.126012951 0.022178814
0.494674742 0.122319199 0.022474689
0.522661209 0.118941888 0.023262750
0.549621046 0.115699954 0.023262752
0.575232327 0.115228765 0.024051752
0.596777737 0.116044506 0.024839753
0.615952671 0.117553271 0.025628753
0.623091519 0.099400446 0.022474689
0.020157937 0.170179576 0.021390125
0.057092752 0.176840141 0.023903813
0.110663258 0.187210321 0.021488626
0.166793093 0.199711695 0.024642626
0.228194207 0.211371258 0.027008625
0.290352106 0.214712739 0.027057875
0.346158624 0.211008877 0.027107188
0.393296510 0.204769433 0.027107188
0.438440144 0.198908448 0.027156439
0.484994620 0.195191428 0.027896125
0.520719707 0.190925881 0.028093187
0.549480855 0.187256187 0.028684190
0.575378418 0.184327811 0.029473189
0.601352930 0.182296693 0.029670188
0.623414338 0.181059003 0.030261189
0.642537951 0.180235565 0.031050190
0.651656806 0.167277023 0.028684190
0.037851751 0.221699819 0.024199063
0.080512315 0.230607301 0.028832439
0.131606951 0.239701629 0.023854438
0.186489508 0.252169877 0.026171125
0.249286309 0.267893940 0.030113375
0.314899862 0.280037731 0.032479312
0.373304933 0.284999937 0.033317566
0.420998573 0.281157374 0.033908624
0.465429932 0.273970127 0.033908624
0.510173738 0.266488612 0.034105625
0.547440469 0.259469748 0.034105625
0.577752113 0.254722178 0.034154940
0.602941811 0.251012236 0.034894627
0.628656983 0.248149514 0.034943879
0.652037024 0.246268749 0.035682626
0.671200633 0.244513810 0.036471624
0.682933688 0.234597504 0.034105625
0.071956195 0.274950773 0.032430317
0.110154696 0.283042520 0.034500130
0.157815397 0.291873276 0.028388627
0.209928513 0.303747922 0.029374439
0.269617468 0.318758339 0.032430124
0.335635751 0.333691359 0.036866125
0.394487917 0.343105286 0.038689751
0.446120441 0.349696547 0.039773628
0.491653144 0.347368747 0.040211435
0.537946343 0.341332823 0.040308565
0.576734066 0.333647043 0.040308565
0.606698275 0.324390888 0.039822940
0.630233645 0.317040145 0.039822940
0.653673232 0.310995728 0.040308561
0.677568853 0.307287395 0.040604062
0.697055936 0.304041713 0.041131504
0.711445332 0.295825571 0.039034564
0.108642213 0.330592245 0.044572193
0.141482756 0.337108344 0.044572193
0.186225265 0.344275117 0.032676879
0.237750143 0.356904775 0.034845002
0.294269860 0.369711459 0.037457127
0.357441872 0.385843545 0.040935062
0.415262252 0.396778733 0.043209877
0.466769665 0.404364020 0.043999061
0.514643669 0.410680532 0.045457564
0.562274694 0.410427302 0.046175692
0.603958309 0.405878276 0.046175692
0.635650694 0.397333920 0.046175692
0.659368992 0.387935817 0.046175692
0.681511402 0.378917933 0.045637190
0.703831673 0.371871740 0.046175689
0.723569036 0.366481394 0.046175692
0.738414943 0.355938017 0.043999065
0.146971837 0.385055900 0.060151756
0.176593632 0.390798539 0.059307814
0.218028635 0.397447497 0.042610005
0.266244560 0.408840090 0.042342063
0.322335899 0.422870129 0.042168692
0.380194366 0.437048316 0.043207813
0.435089082 0.448915184 0.047144070
0.486192644 0.457466930 0.049187254
0.534259200 0.464309633 0.050503943
0.583289742 0.471104801 0.051599067
0.627365828 0.472607881 0.052260377
0.661664903 0.467890531 0.052260377
0.686776459 0.458548933 0.051641505
0.708819330 0.448561698 0.051181126
0.731345773 0.439466566 0.050974563
0.751163960 0.431257367 0.050931815
0.766350329 0.420155704 0.048937880
0.187530443 0.438522995 0.079210937
0.214385197 0.443303764 0.077993192
0.252375931 0.449198723 0.054459624
0.298720986 0.460644037 0.053921875
0.350672513 0.473259985 0.052887876
0.402871042 0.485436141 0.054217122
0.454266727 0.496715993 0.056627937
0.505125821 0.507966399 0.057920501
0.552399397 0.514370263 0.056189187
0.602657557 0.521979988 0.055955376
0.645925224 0.527402401 0.056929562
0.683575809 0.529789448 0.057851564
0.712415814 0.526984811 0.058161061
0.735220551 0.519108057 0.058273751
0.757692575 0.510346413 0.058459252
0.778785825 0.501029432 0.058952503
0.794344664 0.488351434 0.055638373
0.229810819 0.489445120 0.106512122
0.253863513 0.494969189 0.105415814
0.288147181 0.499645710 0.076982059
0.332029253 0.510450780 0.076885000
0.378377944 0.521448314 0.074019194
0.425870687 0.531854391 0.069827124
0.474243820 0.543076992 0.065955125
0.520723522 0.553159833 0.063565314
0.570181370 0.562931359 0.063340686
0.619931102 0.569394350 0.064193688
0.662790895 0.574616730 0.065644994
0.700333595 0.579606831 0.068867192
0.729753494 0.581308246 0.069341995
0.755179524 0.579422235 0.067871690
0.780460000 0.574528277 0.067294374
0.803578973 0.567643940 0.065850124
0.821071744 0.556437910 0.061383314
0.272300184 0.541735828 0.135233000
0.293776989 0.546441913 0.134259120
0.325285435 0.550557911 0.102262504
0.363824934 0.559025466 0.098407008
0.404383242 0.568860531 0.093902871
0.449479252 0.579171002 0.086797304
0.493158281 0.588772237 0.085017003
0.538032174 0.598285437 0.085865691
0.585919082 0.608153880 0.087925814
0.635703802 0.616564393 0.087751441
0.678310394 0.622253597 0.083811067
0.716800690 0.626550257 0.080185749
0.745303571 0.629904270 0.078121997
0.772425592 0.632861495 0.074176490
0.798532307 0.631797194 0.072250001
0.823693514 0.628217578 0.071132809
0.843326569 0.618971765 0.066022933
0.314397067 0.586263478 0.166872188
0.332583010 0.590202689 0.166555375
0.358662069 0.592887640 0.133092195
0.392280549 0.600316346 0.132689580
0.430253744 0.608607888 0.128813013
0.469748825 0.617549121 0.126416191
0.510138452 0.627065539 0.125221521
0.553491175 0.636306465 0.122318447
0.601280630 0.647298574 0.118583068
0.650255322 0.657865345 0.114719391
0.692363501 0.665655792 0.103679821
0.729773819 0.670008481 0.092502326
0.758665025 0.672928035 0.089529946
0.784822226 0.676117778 0.095655762
0.811297536 0.678344667 0.102841891
0.838432968 0.679958880 0.102896512
0.861665845 0.675564289 0.080262132
0.353749454 0.629733205 0.200468898
0.369350851 0.632310271 0.198903590
0.390740097 0.632078290 0.166685790
0.422348052 0.639096439 0.166148901
0.454989851 0.646279812 0.164720535
0.491213799 0.654403627 0.162379727
0.529342532 0.663062155 0.159609824
0.572454751 0.673020363 0.155372918
0.618577957 0.683345437 0.149113044
0.663499415 0.693429530 0.145520300
0.704290271 0.701965809 0.141098678
0.740560174 0.707155645 0.133938119
0.768365681 0.710187197 0.133278757
0.795373321 0.713430107 0.136776298
0.822469950 0.716050148 0.143672407
0.849423945 0.719076812 0.149612159
0.874269187 0.717998087 0.104894735
0.394325048 0.669431388 0.229733348
0.409057170 0.672372580 0.229270473
0.424937099 0.671436429 0.200487837
0.451904833 0.676327467 0.199586034
0.482935250 0.683503270 0.198912531
0.515703976 0.690066218 0.198885471
0.553270817 0.698187530 0.196845725
0.595732272 0.707903385 0.194408476
0.638745844 0.717526197 0.191782475
0.679176450 0.725826859 0.190726489
0.717359126 0.733697951 0.189480036
0.750637054 0.739295244 0.189161539
0.777946591 0.742750287 0.186090112
0.805365324 0.745108962 0.180649653
0.834808230 0.749095142 0.179370478
0.860267758 0.752851784 0.180532575
0.883721828 0.752068877 0.148574278
0.430008978 0.705373764 0.255866706
0.442550749 0.707065463 0.253543288
0.455614865 0.706059039 0.227156848
0.482645482 0.712167680 0.227992520
0.509995818 0.717355967 0.227580160
0.543353856 0.724655569 0.227854908
0.580738306 0.732751846 0.226780280
0.620881617 0.741309822 0.225680411
0.659171760 0.749760091 0.224195972
0.696439385 0.757728040 0.222843722
0.731354713 0.764361858 0.221907720
0.760442197 0.769984543 0.223052472
0.789072812 0.774787307 0.220892459
0.816438794 0.777449787 0.216129720
0.844826519 0.780502319 0.212234527
0.869576037 0.783616364 0.209251404
0.893358648 0.783263385 0.171682209
0.466733932 0.738439023 0.284024745
0.477395743 0.740008712 0.278303444
0.498023748 0.743352890 0.278564245
0.520650804 0.747631907 0.278497577
0.547918499 0.753546894 0.278708011
0.579044878 0.760563731 0.278648704
0.613269925 0.767642975 0.278866887
0.646508694 0.774928212 0.278699398
0.680058241 0.782028198 0.278950423
0.714800775 0.789542079 0.280782253
0.742676497 0.794751644 0.284115613
0.769539714 0.800598383 0.293391943
0.797545552 0.807120502 0.307213396
0.826442540 0.811540782 0.305906057
0.853179395 0.814820349 0.305988818
0.875855327 0.818623304 0.315184355
0.896671712 0.823774993 0.348511338
0.007886000 0.004731000 0.070724130
0.026417688 0.003943000 0.050341312
0.084976882 0.007787375 0.044647004
0.157910749 0.008033750 0.039761811
0.234151766 0.003943000 0.035288502
0.293282270 0.003943000 0.031395376
0.348736644 0.004731000 0.026417626
0.392031640 0.005520000 0.025135875
0.423246622 0.006309000 0.022572998
0.451038003 0.007097000 0.022277500
0.475665092 0.008181500 0.021587126
0.497529209 0.009463000 0.021587126
0.516861200 0.010251000 0.021981500
0.535948038 0.011040000 0.022721002
0.554720044 0.011829000 0.024741251
0.573597372 0.012617000 0.026220500
0.592264354 0.014194000 0.027797500
0.005766437 0.028289877 0.061030317
0.020996250 0.024642626 0.048933059
0.060309187 0.025283687 0.046032939
0.115468763 0.029866939 0.041989565
0.179568514 0.034598880 0.039079063
0.246784180 0.033957876 0.035337750
0.303059071 0.031444814 0.031395376
0.357573658 0.029374372 0.028881688
0.406579703 0.024839874 0.027008750
0.442641318 0.021488626 0.024839938
0.472968012 0.021488562 0.024494750
0.502175033 0.021537876 0.023805249
0.527951419 0.021784374 0.024100814
0.550098240 0.023903875 0.025431626
0.568919122 0.024889128 0.026220500
0.587342203 0.026368380 0.028585630
0.593672991 0.014933688 0.022523938
0.004337250 0.065357506 0.040777750
0.021932187 0.074599430 0.055571564
0.057190750 0.080036744 0.062405378
0.120367199 0.084033750 0.057471063
0.181970388 0.089322746 0.053349249
0.250175267 0.094584249 0.049524188
0.312002033 0.098541379 0.045619622
0.365328670 0.098801628 0.041180998
0.418052495 0.097218253 0.037555873
0.461692750 0.093221441 0.035337813
0.495045006 0.089826755 0.033514127
0.523492873 0.087326884 0.032824624
0.551278114 0.086141996 0.031937249
0.574728429 0.085177369 0.032232873
0.595277607 0.086555630 0.033711374
0.613683343 0.090267196 0.035978749
0.614908040 0.053607251 0.025431626
0.002563125 0.112992696 0.044812191
0.024248814 0.127348959 0.061847560
0.076781698 0.137551710 0.073372558
0.136865020 0.146014258 0.069324061
0.200109065 0.146072507 0.061958499
0.264359295 0.147244573 0.057433002
0.324649632 0.149611205 0.052851435
0.377301931 0.149668321 0.046993125
0.429589808 0.149676338 0.042955190
0.476094425 0.148857251 0.039276250
0.512487054 0.146669209 0.037851688
0.541180253 0.145039439 0.036422435
0.569115698 0.143742263 0.035781436
0.594129205 0.142017961 0.034746565
0.615636110 0.142840579 0.036175814
0.634638548 0.145154700 0.037654314
0.643321574 0.127629265 0.031641874
0.004041500 0.172372878 0.066497251
0.033071004 0.183371946 0.075087689
0.092803746 0.193257257 0.080828004
0.153355643 0.205116123 0.070922628
0.221839875 0.216145635 0.072383992
0.286794871 0.217731997 0.065454438
0.345618010 0.215211630 0.058899000
0.396315694 0.211929262 0.053974994
0.446308255 0.210538894 0.049804248
0.494215786 0.209413201 0.045695879
0.532187462 0.206556499 0.043122377
0.562694788 0.204169124 0.041249875
0.589696348 0.202518627 0.040682126
0.615730822 0.201713502 0.041251250
0.638512969 0.200855121 0.042008001
0.657666326 0.200794265 0.042248443
