assets /tkxel's branding Lut/tkxel branding Lut 1 (40%).cube
TITLE "17x17x17 Adobe/IRIDAS cube 3D LUT exported with GrossGrade v0.2.2 (beta) 64 bit"
DOMAIN_MIN 0 0 0
DOMAIN_MAX 1 1 1
LUT_3D_SIZE 17
0.007886000 0.007886000 0.007886000
0.017792001 0.007886000 0.007886000
0.042094626 0.007886000 0.008575500
0.086704642 0.008526251 0.009610750
0.170207500 0.010842750 0.008674000
0.259930134 0.015278187 0.008132250
0.345332146 0.024051253 0.008378501
0.434399903 0.037703950 0.009462999
0.517235041 0.054911003 0.007886000
0.594631016 0.069484748 0.008329250
0.662313104 0.084701248 0.007392875
0.726399541 0.101124756 0.007639437
0.789120793 0.117896006 0.006506001
0.855011821 0.134380519 0.010251000
0.930630326 0.150758892 0.009364373
0.999518514 0.169448391 0.012026137
1.000000000 0.188599005 0.020502999
0.007886000 0.022425376 0.010152437
0.014785876 0.021685688 0.013208812
0.041390814 0.023114875 0.008772563
0.102015898 0.029177440 0.008033750
0.195267126 0.039518375 0.006358250
0.284964770 0.051683124 0.007639437
0.359367192 0.059952628 0.007885999
0.440825343 0.069710702 0.007097000
0.517070711 0.080153190 0.007886000
0.592236698 0.092068501 0.006309000
0.657235146 0.105282694 0.007392875
0.720971346 0.120712809 0.007639437
0.785775721 0.133576766 0.006506001
0.852480412 0.146986082 0.011187940
0.927799404 0.162792012 0.009315120
0.997180700 0.183358088 0.013455256
1.000000000 0.200704381 0.020502999
0.013898375 0.075433373 0.031642001
0.020749750 0.072739124 0.027748249
0.025727252 0.064227127 0.027008625
0.066473827 0.064165503 0.013750996
0.174733013 0.074530631 0.006900000
0.279853255 0.080928124 0.007886000
0.363688767 0.088409752 0.007392875
0.445079148 0.097183697 0.007097001
0.519096434 0.108383007 0.007886000
0.589858353 0.118583500 0.007097000
0.653034985 0.129670128 0.007392875
0.717573464 0.140094697 0.006850750
0.781435668 0.151406765 0.006506002
0.847777486 0.163968384 0.009561500
0.924163282 0.179740131 0.005717253
0.995145977 0.199130327 0.012715569
1.000000000 0.214811370 0.016757125
0.026860690 0.139161006 0.060385071
0.036767632 0.139389321 0.058091257
0.044183694 0.136159137 0.039231755
0.047630131 0.119138628 0.027452253
0.119885877 0.113399006 0.022622444
0.237493038 0.122972265 0.006702815
0.349930227 0.127379701 0.007392874
0.442924649 0.132280886 0.007886000
0.518558025 0.139705569 0.007886000
0.588365793 0.147763133 0.007097000
0.651616573 0.156386077 0.007886000
0.714184284 0.165669441 0.006309000
0.777693331 0.175644889 0.007294250
0.844972670 0.191185087 0.006949245
0.920824111 0.204449207 0.005717130
0.993766963 0.219283581 0.010448252
1.000000000 0.234051377 0.010398936
0.047367752 0.214961499 0.090076752
0.058472812 0.214586318 0.089701876
0.066778250 0.213441253 0.079545878
0.063264564 0.208550870 0.060389124
0.108613759 0.170998007 0.040979248
0.191972762 0.160805881 0.041473627
0.313183397 0.178851128 0.009758623
0.429186374 0.184488446 0.007097001
0.516606271 0.184583247 0.007886000
0.587376952 0.188821822 0.007442188
0.649937272 0.195267513 0.007886000
0.711986303 0.203254387 0.007097000
0.775468707 0.211917758 0.007294250
0.845420837 0.222248703 0.006752248
0.919559002 0.233888149 0.006407503
0.992572844 0.247989148 0.008624747
1.000000000 0.261358261 0.005322750
0.070615754 0.301932871 0.127090186
0.080781065 0.301286250 0.126061380
0.091840558 0.300261378 0.122509003
0.090436928 0.299875319 0.115054123
0.113570571 0.287171274 0.076666929
0.198571950 0.227255493 0.061907001
0.285423607 0.217707574 0.055760119
0.405547202 0.241864756 0.016806236
0.508897781 0.250353634 0.007491499
0.588137269 0.246370628 0.007442188
0.649284601 0.244364440 0.007886000
0.709783673 0.247883812 0.007097000
0.772036433 0.254147768 0.007886000
0.843203962 0.263367683 0.006309000
0.918224096 0.274922192 0.007195627
0.993996263 0.287198991 0.007787432
1.000000000 0.297730625 0.005520000
0.098859131 0.396251023 0.163676262
0.110960513 0.395490527 0.162472636
0.122947633 0.395225286 0.161377013
0.129502505 0.394515485 0.160743147
0.102729253 0.394184917 0.149717391
0.220117480 0.368434459 0.068904333
0.301809549 0.295795023 0.076527759
0.388523608 0.283721149 0.068868943
0.495093048 0.313673407 0.030445509
0.585186958 0.330641627 0.006308818
0.652981758 0.327948898 0.007886000
0.711276770 0.320566773 0.007097000
0.770743489 0.316209167 0.007886000
0.838805676 0.317485571 0.006949248
0.918339550 0.323416293 0.007195627
0.995326221 0.332155645 0.006259685
1.000000000 0.340729266 0.006604500
0.132946014 0.489569843 0.202936202
0.141291514 0.488372654 0.201875091
0.151767328 0.488495529 0.201643825
0.162710145 0.488639414 0.204104334
0.140141472 0.488972962 0.203681827
0.168902606 0.482200056 0.153060496
0.347689897 0.442813098 0.068929628
0.405842632 0.370096326 0.090854198
0.482939512 0.351751179 0.082418442
0.579745770 0.386327833 0.049695715
0.654260755 0.412564605 0.010399460
0.713900328 0.416995019 0.006850748
0.772670925 0.407518685 0.007885999
0.837775469 0.398863733 0.007097000
0.914988756 0.393225908 0.007886000
0.997442901 0.393911928 0.006702999
1.000000000 0.399202287 0.007097000
0.161407501 0.577071071 0.234058499
0.168979630 0.576829016 0.233739525
0.181683257 0.576327324 0.233480513
0.195152640 0.575445771 0.237018198
0.187324256 0.576764345 0.240476757
0.134606808 0.576340199 0.230856568
0.306829154 0.555475354 0.111344613
0.458609998 0.513684213 0.082256392
0.498903036 0.439654529 0.106393002
0.567618608 0.421481192 0.098974198
0.648734212 0.452754021 0.072636396
0.715648413 0.484340340 0.028388701
0.775623500 0.496418774 0.007688501
0.838273346 0.490485013 0.007097000
0.911832213 0.478466123 0.007886000
0.991866052 0.468099892 0.007097000
1.000000000 0.465899020 0.007491501
0.190556318 0.651569545 0.264068574
0.197471499 0.650953412 0.263216794
0.206971377 0.650409818 0.263232857
0.220304623 0.650874972 0.269217491
0.219697937 0.650403678 0.274564892
0.156902373 0.653650284 0.275936574
0.223202437 0.641615927 0.212610081
0.452853888 0.616705120 0.075584739
0.550812960 0.576706111 0.114655130
0.581137776 0.505119622 0.126030624
0.637312949 0.485857815 0.119313814
0.711881697 0.515658855 0.093924440
0.778382480 0.550531149 0.048251927
0.838896751 0.568789482 0.008329431
0.909215271 0.564959407 0.007639438
0.983022690 0.553056240 0.007097000
1.000000000 0.547311425 0.007540812
0.212453872 0.718487501 0.286477864
0.218585491 0.717836261 0.286168754
0.228131115 0.718040884 0.287384987
0.241247490 0.717722833 0.293408930
0.243063375 0.717066228 0.299078763
0.202565700 0.719289184 0.302823633
0.154914200 0.717289984 0.281661093
0.395904362 0.693091154 0.130256221
0.561919749 0.672650516 0.076495901
0.623603463 0.630756199 0.145576805
0.647301674 0.567829370 0.145903870
0.702810049 0.550157368 0.139588311
0.771465480 0.576794147 0.116070367
0.837282360 0.612156749 0.067326374
0.906605661 0.629996359 0.012518613
0.981101155 0.629026353 0.006309000
1.000000000 0.624772847 0.007590125
0.232543558 0.777952611 0.304456741
0.238419682 0.777733922 0.304570496
0.248338386 0.777625084 0.306701362
0.262980372 0.777421892 0.313856840
0.266186684 0.777240753 0.319836438
0.233854368 0.779006362 0.324657768
0.143720090 0.781281531 0.321061939
0.316422015 0.761849046 0.229098722
0.530217111 0.740333676 0.068745919
0.641028464 0.724303782 0.126383305
0.688394606 0.682231069 0.171875745
0.708257973 0.623497248 0.167878747
0.760757089 0.609492004 0.162733123
0.832455099 0.631901205 0.138631403
0.901898623 0.666709542 0.083128750
0.973672450 0.688172936 0.020256341
1.000000000 0.692702591 0.010251813
0.251837254 0.836490035 0.322336763
0.259206027 0.835782230 0.322802812
0.270690382 0.835126758 0.325819999
0.282465190 0.835602522 0.332671434
0.285209745 0.836125791 0.339891493
0.261212379 0.835818291 0.344753951
0.164436609 0.840910137 0.348596632
0.235017538 0.827567101 0.300123096
0.475838006 0.804983497 0.152239472
0.621301234 0.791027129 0.059242114
0.708815634 0.772564888 0.172310859
0.747539818 0.731415689 0.204137564
0.768885970 0.676899314 0.198024005
0.822703719 0.663054049 0.190669626
0.895681798 0.687548935 0.158801720
0.964293957 0.717275023 0.102862030
0.998985529 0.735694766 0.102255277
0.276092708 0.895941973 0.339870721
0.281516761 0.895466208 0.340956002
0.291206717 0.895053446 0.345377088
0.302463233 0.896197975 0.352957100
0.304618031 0.896408021 0.361789018
0.284695148 0.896414936 0.367820501
0.202812046 0.900505722 0.376434267
0.161389872 0.898130178 0.351346254
0.406473666 0.873123348 0.252072543
0.582645178 0.856172979 0.085516356
0.693270445 0.843873560 0.092137285
0.772057414 0.824425578 0.211343527
0.806957364 0.780648351 0.233269453
0.829118133 0.726697624 0.226272911
0.886308491 0.712695837 0.218185276
0.956037760 0.737837255 0.188722670
0.984973967 0.765646994 0.229978129
0.297630787 0.957298636 0.359828413
0.303737402 0.957660735 0.362833709
0.313194513 0.957807064 0.368458122
0.322737962 0.957413733 0.377310216
0.325207561 0.957179189 0.385459542
0.306834042 0.958269358 0.390023410
0.241728991 0.961172640 0.397474676
0.131212503 0.964493811 0.394531876
0.314508229 0.946009159 0.327952445
0.521721303 0.922831416 0.209775656
0.659876585 0.912490129 0.058835573
0.758718550 0.899850547 0.134651124
0.834563375 0.880672336 0.244134486
0.866894960 0.831076622 0.268193573
0.889689922 0.775072396 0.259269148
0.946305573 0.765920520 0.251311809
0.975329041 0.791167438 0.345498383
0.323263913 0.997657180 0.385692090
0.329403788 0.997535706 0.388553798
0.338100463 0.997429371 0.393266976
0.346453160 0.997212648 0.400938600
0.348644704 0.997062445 0.409393668
0.329768300 0.997757792 0.413650095
0.274865806 0.998630345 0.421386331
0.156628087 1.000000000 0.425027788
0.216384470 0.997987568 0.387608021
0.453019559 0.987663090 0.300848007
0.607309699 0.974062860 0.166595653
0.729944289 0.965835035 0.042063989
0.822881281 0.952917039 0.186503783
0.895232558 0.931642532 0.283752888
0.922895133 0.877470493 0.299524724
0.945438087 0.820818841 0.289984256
0.962611198 0.838717282 0.463737607
0.338465989 1.000000000 0.363590002
0.338272065 1.000000000 0.366754502
0.336672127 1.000000000 0.372557610
0.330836177 1.000000000 0.382666945
0.310875475 1.000000000 0.395730257
0.260163069 1.000000000 0.404980302
0.152127221 1.000000000 0.413777113
0.121954314 1.000000000 0.412260234
0.291203052 0.999972999 0.375212997
0.455480456 1.000000000 0.306154877
0.591119289 0.998230517 0.167977989
0.702379942 0.991786957 0.109994754
0.797034264 0.978656292 0.310928792
0.880085349 0.968223631 0.439175457
0.929571271 0.937975585 0.513207555
0.942449868 0.892384589 0.562341034
0.953728020 0.885882974 0.618355989
0.007886000 0.014736563 0.048486814
0.016362874 0.015573875 0.060352437
0.028191812 0.014835125 0.058113936
0.057328574 0.009660123 0.055323873
0.135259435 0.007146312 0.043078374
0.225449950 0.007935250 0.031049937
0.323348284 0.011877626 0.025431437
0.426621526 0.021340631 0.025382126
0.517394423 0.037014008 0.021834061
0.598476946 0.056780998 0.016412187
0.668378174 0.077157371 0.013258126
0.731465042 0.095786251 0.011878062
0.793519020 0.114990123 0.015919127
0.859108746 0.132715955 0.019516874
0.932413399 0.150028467 0.022819635
1.000000000 0.169696197 0.029719569
1.000000000 0.188625067 0.034450561
0.007886000 0.028585564 0.062077872
0.014835126 0.029374562 0.063858628
0.041193690 0.027846813 0.058331873
0.092329010 0.030014813 0.048577499
0.172717571 0.033809874 0.034303188
0.256565243 0.041304752 0.025579501
0.342714518 0.051969629 0.021883000
0.433606654 0.064224258 0.020108622
0.516317427 0.076745383 0.014883936
0.594340205 0.090545811 0.013504312
0.661414146 0.105666123 0.014736563
0.724564433 0.120585002 0.014687250
0.788397014 0.134873629 0.019714251
0.855263948 0.148774207 0.024002310
0.929130077 0.165045276 0.025135508
0.997838616 0.185456648 0.033465438
1.000000000 0.190443128 0.022080000
0.007885938 0.074424192 0.063052997
0.013996937 0.073988438 0.064113811
0.028142560 0.069546431 0.066168442
0.087295204 0.072871558 0.048999250
0.192992449 0.079482064 0.029965937
0.281184852 0.085606441 0.022129314
0.358911961 0.093129374 0.018876562
0.441218674 0.102093130 0.014785433
0.517514765 0.112414882 0.012025813
0.589771748 0.122842431 0.013996875
0.654523253 0.133923709 0.014095500
0.719129205 0.144143865 0.015672561
0.782938838 0.155748889 0.019664874
0.849183738 0.168344021 0.019517060
0.924742341 0.185478017 0.022918198
0.995036244 0.203467593 0.029916750
1.000000000 0.208638608 0.019812625
0.018383816 0.138921753 0.064882748
0.027452566 0.139134899 0.063929684
0.037457190 0.137479708 0.062528126
0.047396757 0.125684321 0.064359002
0.133420810 0.122159123 0.051437631
0.256220430 0.127309501 0.028536756
0.356521726 0.130602211 0.016658623
0.443433076 0.136351764 0.009758563
0.518156946 0.143893749 0.011188063
0.587569833 0.151838511 0.009610437
0.650494874 0.160177439 0.006653688
0.713897705 0.169646949 0.011927312
0.777746320 0.182455435 0.013307312
0.844841838 0.195779011 0.011089251
0.920529008 0.208923265 0.018235568
0.993367016 0.223958582 0.020700186
1.000000000 0.229459941 0.012173873
0.039616939 0.215274379 0.080088131
0.051518500 0.214345992 0.078676380
0.062476125 0.213808939 0.075093374
0.061257005 0.211340502 0.065659627
0.102844134 0.184734255 0.065086871
0.198394924 0.172269687 0.067528874
0.321828872 0.184875697 0.034289680
0.432532519 0.185112685 0.014095870
0.516370952 0.186629698 0.011237376
0.585530221 0.191803515 0.008723750
0.648492455 0.198466688 0.007146562
0.710903287 0.206247762 0.011089438
0.774405241 0.214911878 0.010744186
0.844282687 0.225510895 0.008821880
0.918381691 0.236936271 0.014095503
0.992574513 0.251490116 0.013405873
1.000000000 0.256329119 0.005372062
0.064519063 0.301196545 0.117427498
0.075052500 0.300524622 0.114539132
0.085984744 0.299693912 0.113982558
0.091953814 0.299421877 0.116631381
0.105060071 0.291513652 0.093719557
0.194343701 0.242885485 0.083553061
0.286372900 0.230368704 0.079292618
0.408904642 0.248331323 0.040828232
0.508945525 0.249513760 0.013651874
0.585002422 0.244704619 0.010004937
0.646731555 0.245022997 0.007343625
0.708250761 0.249623120 0.010596251
0.771089315 0.256665945 0.009413436
0.842320442 0.265955776 0.008821880
0.917774200 0.278211206 0.013159499
0.994009733 0.290060103 0.010251120
1.000000000 0.293736696 0.006259687
0.092740327 0.395967901 0.158499643
0.102716632 0.395603836 0.158232197
0.117150009 0.395563275 0.156756565
0.128596008 0.394936144 0.161439642
0.103862017 0.395544291 0.161628127
0.199644238 0.374738723 0.096341088
0.299683899 0.308585018 0.097799495
0.387379050 0.296950936 0.089768320
0.495640337 0.322344869 0.051658820
0.584171116 0.331380367 0.017003451
0.649894357 0.325267971 0.008279937
0.708053946 0.318396270 0.009906188
0.769131720 0.315925449 0.006111751
0.838002443 0.318318635 0.008871131
0.917737365 0.325292706 0.011631746
0.995218217 0.334096581 0.007047754
1.000000000 0.337148726 0.006309000
0.127575010 0.489423454 0.198302895
0.136041209 0.488874346 0.198092580
0.146387190 0.488245338 0.197492629
0.159873754 0.489064395 0.203669578
0.148051575 0.488832712 0.210575834
0.145578593 0.484815270 0.175775602
0.334102660 0.451702476 0.084730506
0.405170768 0.382627934 0.113452129
0.482166737 0.364174843 0.102060258
0.578838587 0.396098971 0.067206718
0.651798666 0.415811658 0.024889527
0.710830092 0.415210336 0.011286378
0.772524834 0.405104578 0.006309001
0.835738003 0.396868229 0.008723377
0.914269805 0.392943650 0.007639183
0.997254431 0.394686311 0.007097065
1.000000000 0.396099061 0.006752250
0.155971438 0.576327562 0.230589956
0.163217813 0.575788140 0.230266199
0.175372764 0.575874090 0.229770258
0.190879077 0.575109243 0.235868886
0.190699384 0.576007307 0.244511962
0.131736562 0.577517569 0.241332382
0.278962493 0.558999479 0.139964730
0.451276541 0.519334078 0.099373274
0.497758538 0.449250758 0.129298821
0.567372084 0.431183636 0.119414948
0.647716880 0.461201191 0.088077828
0.713905990 0.488636494 0.042729579
0.775536537 0.496307164 0.012321441
0.836196721 0.488140583 0.009364437
0.910827100 0.476350904 0.006210373
0.991309941 0.466419667 0.007885939
1.000000000 0.463054717 0.007491501
0.184397191 0.650409877 0.260282785
0.192396000 0.650319099 0.259845555
0.202764571 0.650566220 0.260539502
0.217433184 0.650298893 0.267854869
0.220008805 0.649853826 0.277260810
0.168464243 0.652603984 0.280946493
0.200602874 0.643732131 0.231206954
0.435257018 0.618837178 0.088260233
0.547200680 0.582737744 0.129965633
0.580121875 0.512464464 0.144613773
0.636275113 0.493868530 0.138126075
0.711349070 0.523283541 0.109227121
0.777534544 0.555826426 0.062944047
0.837071180 0.569406271 0.017151421
0.908106565 0.563462973 0.007245059
0.982565820 0.551221311 0.007885940
1.000000000 0.545102715 0.007442188
0.208204374 0.718051255 0.282583505
0.214187697 0.717238009 0.282318860
0.224030808 0.717282593 0.283655047
0.238320053 0.717646420 0.291256994
0.242592320 0.717222273 0.300219238
0.207949743 0.719632626 0.306076825
0.146226123 0.718864143 0.294032305
0.375520408 0.695360661 0.155932903
0.553465962 0.674624145 0.087921217
0.622464418 0.636351824 0.160863131
0.646408796 0.573811173 0.163543060
0.701566219 0.556778252 0.156008124
0.770699561 0.583342314 0.131896809
0.836918473 0.616092801 0.080279879
0.905404866 0.631033778 0.024987776
0.980785787 0.627798676 0.007836690
1.000000000 0.623407364 0.007886000
0.228110060 0.777317822 0.300489932
0.234060690 0.776953101 0.300482243
0.244239196 0.776769400 0.302937061
0.260307938 0.777249813 0.311487287
0.264949471 0.777400851 0.320917934
0.236340865 0.778912783 0.326741755
0.141949251 0.781963468 0.327835143
0.294201821 0.764648378 0.246823251
0.517061412 0.741840601 0.085660540
0.636452854 0.725563228 0.134057939
0.687337756 0.685548067 0.189207703
0.707714617 0.629016697 0.186870322
0.760427654 0.612882614 0.180256113
0.832010806 0.636951447 0.152312353
0.901292384 0.670525968 0.096012183
0.973754466 0.689343989 0.031417396
1.000000000 0.692708135 0.023114875
0.247975126 0.836355507 0.317641437
0.255039573 0.835952401 0.318087101
0.267725468 0.835354745 0.321930766
0.280080825 0.834964931 0.330161273
0.284160435 0.835299492 0.340155572
0.261371821 0.835931599 0.346354246
0.173089847 0.840792298 0.352306455
0.213319600 0.830301523 0.312567592
0.461203218 0.806848764 0.168272302
0.613568783 0.791546822 0.062796369
0.704887033 0.773919106 0.181934372
0.746523619 0.733590841 0.217701450
0.768093407 0.681154013 0.213085011
0.821988165 0.667431831 0.205828920
0.895233870 0.691805243 0.172504291
0.964053154 0.720438778 0.113345526
0.998715460 0.737379611 0.113958411
0.271831691 0.895684779 0.335292846
0.277700633 0.895202458 0.336396128
0.287914008 0.894764364 0.341338813
0.299886793 0.895692706 0.350050718
0.303420573 0.896502435 0.361033082
0.284565806 0.896150351 0.368675917
0.205961436 0.900326133 0.378515482
0.152826861 0.899738908 0.360070735
0.390374959 0.874279261 0.266037852
0.572326481 0.857556820 0.100343421
0.687658310 0.844632566 0.095412478
0.768978715 0.825965524 0.220359951
0.806032240 0.784569144 0.247433722
0.828837335 0.729943812 0.240897089
0.885385096 0.716287076 0.231547594
0.955257893 0.741214156 0.201204240
0.984823883 0.768045604 0.238543987
0.294169575 0.957369566 0.354403466
0.300490320 0.957469285 0.356740654
0.310376644 0.957500279 0.363438278
0.320361465 0.957509637 0.373976767
0.323684216 0.957189858 0.384461224
0.306314945 0.958509326 0.390562087
0.242911786 0.961144269 0.398410767
0.125396878 0.965322971 0.399429828
0.297796279 0.948125243 0.337562233
0.511011660 0.924588323 0.222040668
0.652220428 0.913224339 0.067929573
0.754933059 0.900172770 0.138089940
0.831593156 0.881664872 0.253982961
0.866901040 0.834529102 0.280626655
0.888949871 0.777875483 0.273429573
0.945586920 0.767597258 0.264829934
0.975135088 0.792957306 0.353831857
0.319722384 0.997828364 0.380775392
0.326131850 0.997657180 0.383825332
0.335516632 0.997388899 0.389083326
0.344049662 0.997303784 0.397177964
0.347535670 0.997126579 0.407557815
0.329685032 0.997757792 0.413895458
0.276218176 0.998635411 0.421902508
0.158529833 1.000000000 0.427614331
0.197919101 0.998493671 0.395930082
0.442830682 0.988593280 0.310024232
0.599870920 0.974800587 0.178303853
0.724306524 0.966303527 0.051209353
0.818749905 0.953266084 0.190228775
0.893559873 0.933055162 0.292761028
0.922893226 0.880075753 0.310211599
0.945131183 0.823249102 0.301431507
0.962498188 0.839554548 0.469334602
0.335616112 1.000000000 0.350813687
0.335845530 1.000000000 0.354527116
0.334515125 1.000000000 0.360743493
0.328674316 1.000000000 0.371437877
0.309741765 1.000000000 0.387275428
0.259511083 1.000000000 0.397914678
0.153327733 1.000000000 0.407697052
0.119725496 1.000000000 0.407523513
0.286737531 0.999972999 0.372643530
0.450420678 1.000000000 0.304989934
0.586771250 0.998413801 0.169054136
0.698891461 0.991919756 0.115982309
0.795901060 0.978753269 0.315862089
0.878703058 0.968372762 0.443049461
0.929318309 0.938599944 0.517279565
0.942274928 0.892854869 0.566402197
0.953812242 0.886343181 0.621308684
0.010152500 0.025727250 0.105015501
0.017841313 0.027945375 0.120392747
0.030261250 0.029571751 0.129573762
0.053337257 0.019615997 0.129737377
0.116367504 0.007195625 0.128349006
0.205269188 0.007639437 0.100960873
0.306109548 0.007886000 0.071295865
0.418041945 0.008181626 0.048143178
0.519546151 0.012814377 0.039915502
0.604712427 0.030114122 0.037161563
0.678226888 0.053580247 0.033120375
0.741115332 0.076858878 0.033317499
0.802045882 0.098842755 0.036471624
0.866047561 0.120110594 0.040632509
0.936434567 0.142556265 0.049387384
1.000000000 0.164466634 0.053537190
1.000000000 0.184423253 0.060883626
0.010941375 0.053034000 0.128888950
0.017939875 0.051286314 0.128796756
0.031099435 0.048477814 0.130145684
0.058895886 0.035876058 0.130247951
0.127683178 0.018975187 0.121051311
0.219734296 0.021537874 0.092596754
0.320267856 0.028388690 0.067070246
0.424259603 0.037735820 0.046737682
0.517473638 0.054899126 0.040059064
0.599031270 0.073829383 0.041619502
0.670178533 0.090668999 0.045209311
0.733209014 0.108930126 0.043543626
0.794880629 0.127063259 0.046994753
0.859942973 0.144674763 0.053383440
0.932582736 0.163985789 0.057899129
0.998615265 0.184831575 0.060602751
1.000000000 0.189302742 0.050768815
0.007886000 0.083601497 0.134294882
0.011089250 0.085172132 0.135629937
0.026614752 0.083406247 0.134763747
0.079847455 0.079424001 0.114293307
0.165632144 0.076207004 0.099690996
0.250775576 0.078422122 0.083117120
0.340873510 0.085771009 0.069315746
0.431804031 0.097646318 0.061281502
0.513981700 0.110068254 0.055897374
0.592591822 0.123870946 0.056643751
0.659755766 0.135888129 0.056569003
0.723051369 0.147352129 0.056208625
0.787357509 0.159187257 0.056247748
0.852979481 0.172555387 0.059742693
0.926681697 0.192010641 0.062317498
0.995103776 0.208358690 0.063392945
1.000000000 0.193413764 0.025135502
0.007886000 0.138545081 0.127887875
0.007984502 0.138206258 0.127571121
0.018827379 0.138086647 0.135148197
0.052294385 0.132027835 0.133447364
0.161214933 0.127815887 0.096435696
0.267892301 0.131065324 0.074413188
0.356751144 0.135966510 0.064222500
0.439934015 0.142429024 0.057015616
0.515638530 0.150650203 0.052654061
0.586798191 0.158462808 0.051179186
0.651261091 0.168004453 0.049622308
0.715215623 0.178702638 0.048948560
0.779043138 0.191484496 0.050784372
0.846048534 0.203799695 0.054487310
0.920914471 0.217069119 0.054366812
0.992756069 0.232251763 0.057591002
1.000000000 0.219192877 0.017644621
0.018137377 0.211546123 0.103776373
0.028092749 0.211961746 0.104964875
0.041812252 0.211227015 0.104657501
0.052302752 0.210604876 0.106126249
0.099125631 0.194125742 0.112061247
0.209647179 0.183631316 0.105365127
0.337850034 0.185587019 0.071618751
0.436293155 0.185364887 0.054492682
0.514836311 0.189489484 0.047307126
0.584064662 0.196378008 0.044005938
0.646412492 0.203543127 0.039904252
0.709217310 0.211378992 0.040906690
0.773255467 0.220469892 0.042168379
0.842874050 0.230590016 0.042275555
0.917189300 0.243287399 0.042462133
0.992406547 0.258700430 0.046098128
