assets /tkxel's branding Lut/tkxel branding Lut 1 (40%).cube
TITLE "17x17x17 Adobe/IRIDAS cube 3D LUT exported with GrossGrade v0.2.2 (beta) 64 bit"
DOMAIN_MIN 0 0 0
DOMAIN_MAX 1 1 1
LUT_3D_SIZE 5
0.007886000 0.007886000 0.007886000
0.170207500 0.010842750 0.008674000
0.517235041 0.054911003 0.007886000
0.789120793 0.117896006 0.006506001
1.000000000 0.188599005 0.020502999
0.047367752 0.214961499 0.090076752
0.108613759 0.170998007 0.040979248
0.516606271 0.184583247 0.007886000
0.775468707 0.211917758 0.007294250
1.000000000 0.261358261 0.005322750
0.161407501 0.577071071 0.234058499
0.187324256 0.576764345 0.240476757
0.498903036 0.439654529 0.106393002
0.775623500 0.496418774 0.007688501
1.000000000 0.465899020 0.007491501
0.251837254 0.836490035 0.322336763
0.285209745 0.836125791 0.339891493
0.475838006 0.804983497 0.152239472
0.768885970 0.676899314 0.198024005
0.998985529 0.735694766 0.102255277
0.338465989 1.000000000 0.363590002
0.310875475 1.000000000 0.395730257
0.291203052 0.999972999 0.375212997
0.797034264 0.978656292 0.310928792
0.953728020 0.885882974 0.618355989
0.019319750 0.070349254 0.227089509
0.101607502 0.009857249 0.295097768
0.519080281 0.007886000 0.200515985
0.831598043 0.021685753 0.083043501
1.000000000 0.132095739 0.093730003
0.007886000 0.217926502 0.288335264
0.098607756 0.220137000 0.292405248
0.507674694 0.204812258 0.179678500
0.780363023 0.245501757 0.165788993
1.000000000 0.267441720 0.128698260
0.105684258 0.574894309 0.145850748
0.158164755 0.576921582 0.129102498
0.490539521 0.489450246 0.271529257
0.759850979 0.483698517 0.147370771
1.000000000 0.461572021 0.100036502
0.208799005 0.835206270 0.190545499
0.258240759 0.835631013 0.250392020
0.363366544 0.819717050 0.232937247
0.764883280 0.702497780 0.327367008
0.997398734 0.746743023 0.209505782
0.305574983 1.000000000 0.183289737
0.287659258 1.000000000 0.247458011
0.266885519 1.000000000 0.307774991
0.776549041 0.979580760 0.353810012
0.953999221 0.891996741 0.646609008
0.058043502 0.229199499 0.514639020
0.090127498 0.153152019 0.569365740
0.515003562 0.007886000 0.651550531
0.830533028 0.007097001 0.609405994
1.000000000 0.034303002 0.482917547
0.024445999 0.378965527 0.598952532
0.129973263 0.374633789 0.583491266
0.500434041 0.166408747 0.634282589
0.815045536 0.165097490 0.571237803
1.000000000 0.143608004 0.447629511
0.007886000 0.567492008 0.625552535
0.045151502 0.560045838 0.618084550
0.440101564 0.547910988 0.608421564
0.752132773 0.507368803 0.513202250
1.000000000 0.529578090 0.485222995
0.020108497 0.820140004 0.582374275
0.037735239 0.821428239 0.578197300
0.334404260 0.814831257 0.507964730
0.757508278 0.740755320 0.581033111
0.994863510 0.738138258 0.485162795
0.143965483 1.000000000 0.563457012
0.101872489 1.000000000 0.548897028
0.292050004 1.000000000 0.459805012
0.707253277 0.981907248 0.479660749
0.950003982 0.907333016 0.724101484
0.093946502 0.395487279 0.750887752
0.133599505 0.329701245 0.764425993
0.468417019 0.016362999 0.887370825
0.824335515 0.007886000 0.891412258
1.000000000 0.021883000 0.862405777
0.071441256 0.516959190 0.801299274
0.170625493 0.508835018 0.790700793
0.373310536 0.213716239 0.859049022
0.807995796 0.158855498 0.871128500
1.000000000 0.130674511 0.858584762
0.007491501 0.656315029 0.847853065
0.132063761 0.657551765 0.834961712
0.474850535 0.650632799 0.799254000
0.771096766 0.501660705 0.831421554
1.000000000 0.488132775 0.781498492
0.007886000 0.821758270 0.856399775
0.024051251 0.813408256 0.845822811
0.427182794 0.788003743 0.820803285
0.716780782 0.771970987 0.808266997
0.982992530 0.759874225 0.759291232
0.012420004 1.000000000 0.828887522
0.137369767 1.000000000 0.817783535
0.423432797 0.994148016 0.796237528
0.675258040 0.978187501 0.748727798
0.948221743 0.929265976 0.844658732
0.139170006 0.540338993 0.927393973
0.178315505 0.496955514 0.930647254
0.221144512 0.213716954 0.999261498
0.801612020 0.031148750 1.000000000
1.000000000 0.014983000 1.000000000
0.137437001 0.636073291 0.969913721
0.209642261 0.638702512 1.000000000
0.267389745 0.406745732 1.000000000
0.815579295 0.134872004 1.000000000
1.000000000 0.129677758 1.000000000
0.114121996 0.761646032 1.000000000
0.200947762 0.763985276 1.000000000
0.497900009 0.752530456 0.979864001
0.715782523 0.504144549 1.000000000
1.000000000 0.481929004 1.000000000
0.007885999 0.869630992 1.000000000
0.128594249 0.866171479 1.000000000
0.477678001 0.859692514 0.995660484
0.742107272 0.851284027 0.965199232
0.976091266 0.741648793 0.989863217
0.104162998 1.000000000 1.000000000
0.232352003 0.999858975 1.000000000
0.492972016 0.982546508 0.989067495
0.732514799 0.968789995 0.974566460
0.947444022 0.952584028 0.958567977
